/* XPM */
static char *helmBoy_debian_icon[] = {
/* columns rows colors chars-per-pixel */
"128 128 7 1 ",
"  c None",
". c #9966CB",
"X c #9A65CC",
"o c #9966CC",
"O c #9867CC",
"+ c #9967CC",
"@ c #9966CD",
/* pixels */
"                                                                                                                                ",
"                                                        oooooooooooooooo                                                        ",
"                                                    oooooooooo.oo.oooooooooo                                                    ",
"                                                 .oooo..                ..ooooo                                                 ",
"                                               ooooo                        ooooo                                               ",
"                                             oooo                              .ooo                                             ",
"                                           oooo                                  oooo                                           ",
"                                         .ooo                .o..o.                oooo                                         ",
"                                        ooo             oooooooooooooooo             ooo                                        ",
"                                       ooo           oooooo.        .oooooo           ooo                                       ",
"                                     ooo          ooooo                  ooooo          ooo                                     ",
"                                    ooo         ooooo     oooooooooooo     .oooo         ooo                                    ",
"                                   ooo         ooo   oooooooooooooooooooooo   ooo         ooo                                   ",
"                                  ooo        oooo.ooooo.o              oooooooooooo        .oo                                  ",
"                                 .oo        ooooooooo                      ooooooooo        ooo                                 ",
"                                ooo       .oooooo              oo              ooooooo       ooo                                ",
"                               ooo       oooooo        .ooooooooooooooooo        ooooo.       oo.                               ",
"                               oo       oooo        oooooooo.      .oooooooo        oooo       oo                               ",
"                              oo         o       oooooo                  oooooo       o         oo                              ",
"                             ooo              oooooo                        oooooo              ooo                             ",
"                             oo             ooooo                              ooooo             oo                             ",
"                            oo            oooo                                   .ooo.            oo                            ",
"                           ooo           ooo                                        ooo           ooo                           ",
"                           oo          oooo                                          oooo          oo                           ",
"                          .o.        oooo                                              ooo.        ooo                          ",
"                          oo        .oo                                                  ooo        oo                          ",
"                          oo       oo.                                                    ooo       .o                          ",
"                         oo       ooo                                                      .oo       oo                         ",
"                         o.      oo                                                          oo      oo                         ",
"                        oo      .o                                                            o.      oo                        ",
"                        oo      oo                                                            oo      oo                        ",
"                        oo      oo                                                            .o      oo                        ",
"                        oo     oo                                                              o.     oo                        ",
"                       .o      oo                                                              oo      oo                       ",
"                       oo      oo                                                              oo      o.                       ",
"                       oo      o                                                                o      oo                       ",
"                       o.     oo                                                                oo     oo                       ",
"                       oo     .o                                                                oo     .o                       ",
"                       oo     oo                                                                oo     oo                       ",
"                       oo     oo                                                                oo     oo                       ",
"                      ooo     oooo                                                            oooo     ooo                      ",
"                     ooo      o.oooo                                                        oooo.o      ooo                     ",
"                   ooo.           ooo                                                      ooo           oooo                   ",
"                  .oo              ooo                                                    ooo              oo.                  ",
"               ooooo                 oo                                                  oo                 ooooo               ",
"             oooo                     oo                                                oo                     oooo             ",
"           ooo.           o.oo        oo                                                oo        oo.o           oooo           ",
"          ooo           oooooooo       oo                                              oo       oooooooo           ooo          ",
"         ooo           .oo    .oo      oo                                              oo      ooo    ooo           ooo         ",
"        ooo            oo       oo      oo                                            .o      oo       oo            ooo        ",
"        oo            oo        oo      o.                                            oo      oo        oo            oo        ",
"       oo       .     oo        oo      oo                                            oo      oo        oo     o       oo       ",
"      oo       .o     oo        oo      oo                                            oo      oo        oo     .o       o.      ",
"      oo      ooo     oo        oo      oo                                            oo      oo        oo     .oo      oo      ",
"     .o      oooo     oo        oo      oo                                            oo      oo        oo     .oo.      oo     ",
"     oo      oooo     oo        oo      oo                                            oo      oo        oo     .ooo      oo     ",
"     oo     .o.oo     oo        oo      oo                                            oo      oo        oo     .ooo      oo     ",
"     o      oo oo     oo        oo      oo                                            oo      oo        oo     .o oo      o     ",
"    oo      oo oo     oo        oo      oo                                            oo      oo        oo     .o oo      oo    ",
"    .o      o. oo     oo        oo      oo                                            oo      oo        oo     .o oo      oo    ",
"    oo      o  oo     oo        oo      oo                                            oo      oo        oo     .o .o      oo    ",
"    oo      o  oo     oo        oo      oo                                            oo      oo        oo     .o  o      oo    ",
"    oo      o  oo     oo        oo      oo                                            oo      oo        oo     .o  o      oo    ",
"    oo      o. oo     oo        oo      oo                                            oo      oo        oo     .o oo      o.    ",
"    oo      oo oo     oo        oo      oo                                            oo      oo        oo     .o oo      o.    ",
"    oo      oo oo     oo        oo      oo                                            oo      oo        oo     .o oo      o.    ",
"     o.     .oooo     oo        oo      oo                                            oo      oo        oo     .oooo     oo     ",
"     oo      oooo     oo        oo      oo                                            oo      oo        oo     .ooo      oo     ",
"     .o      oooo     oo        oo      oo                                            oo      oo        oo     .ooo      oo     ",
"      oo      ooo     oo        oo      oo                                            oo      oo        oo     .oo      .o      ",
"      oo       oo     oo        oo      oo                                            oo      oo        oo     .o       oo      ",
"       oo       o     oo        oo      oo                                            oo      oo        oo     .       oo       ",
"       oo.            oo        oo      o.                                            oo      oo        oo            ooo       ",
"        oo             oo       oo      oo                                            oo      oo       oo             oo        ",
"         oo            ooo     oo      oo                                              oo      oo     ooo            oo         ",
"          ooo           ooo.ooooo      oo                                              oo      .oooo.ooo           ooo          ",
"           ooo           oooooo        o.                                              oo        oooooo           ooo           ",
"            oooo                      oo                                                oo                      oooo            ",
"              oooooo                 oo                                                  oo                 .ooooo              ",
"                ooooo               ooo                                                  ooo               ooooo                ",
"                   ooo            oooo                                                    oooo            ooo                   ",
"                    ooooo       oooo                                                        oooo       ooooo                    ",
"                      oooo     ooo                                                            ooo     oooo                      ",
"                        oo     oo                                                              oo     oo                        ",
"                        oo     oo                                                              oo     oo                        ",
"                        oo     oo                                                              oo     oo                        ",
"                        oo     oo                                                              oo     oo                        ",
"                        oo     .o                                                              oo     .o                        ",
"                        oo      oo                                                            oo      .o                        ",
"                        oo      oo                                                            oo      oo                        ",
"                        oo       oo                                                          oo       oo                        ",
"                         oo       ooo.                                                    .ooo       oo                         ",
"                         ooo       .ooooo                                              oooooo       ooo                         ",
"                          oo          .oooooo                                      oooooo.          oo                          ",
"                           oo            ooooooo                                ooooooo            oo                           ",
"                            ooo              ooooooo                        ooooooo              .oo                            ",
"                             ooo                ooooooo                  .oooooo                ooo                             ",
"                              oooo                  oooooo            oooooo                  oooo                              ",
"                                oooooo                 .oooo.      ooooo.                 oooooo                                ",
"                                  ooooooo                 oooo    oooo                 ooooooo                                  ",
"                                      .ooooo.                oooooo                .ooooo.                                      ",
"                                         ooooooo              oooo              ooooooo                                         ",
"                                             ooooooo           oo            oooooo                                             ",
"                                                ooooooo                  ooooooo                                                ",
"                                                    ooooo              ooooo                                                    ",
"                                                       oooo          .ooo                                                       ",
"                                                         ooo        ooo                                                         ",
"                                                          oo        oo                                                          ",
"                                                           oo      oo                                                           ",
"                                                           oo      oo                                                           ",
"                                                           oo      oo                                                           ",
"                                                           oo      oo                                                           ",
"                                                           oo      oo                                                           ",
"                                                           oo      oo                                                           ",
"                                                           oo      oo                                                           ",
"                                                           oo      oo                                                           ",
"                                                           oo      oo                                                           ",
"                                                           oo      oo                                                           ",
"                                                           oo      oo                                                           ",
"                                                           oo      oo                                                           ",
"                                                           oo      oo                                                           ",
"                                                           oo      oo                                                           ",
"                                                           oo      oo                                                           ",
"                                                           oo      oo                                                           ",
"                                                            oo    oo                                                            ",
"                                                            oooooooo                                                            ",
"                                                             ooooo.                                                             ",
"                                                                                                                                "
};
